dist/img/svg/telegram.svg

<svg width="16" height="16" viewBox="0 0 16 16" fill="none" xmlns="http://www.w3.org/2000/svg">
<path fill-rule="evenodd" clip-rule="evenodd" d="M1.35761 7.52986C5.49193 5.7286 8.24879 4.5411 9.6282 3.96736C13.5667 2.32922 14.3851 2.04465 14.9185 2.03526C15.0358 2.03319 15.2981 2.06226 15.468 2.20014C15.6115 2.31656 15.651 2.47383 15.6699 2.5842C15.6887 2.69458 15.7123 2.94603 15.6936 3.1425C15.4801 5.385 14.5566 10.8269 14.0868 13.3386C13.888 14.4013 13.4966 14.7577 13.1176 14.7926C12.294 14.8683 11.6687 14.2483 10.871 13.7254C9.6228 12.9072 8.91765 12.3979 7.70606 11.5994C6.30586 10.6767 7.21355 10.1696 8.01152 9.34079C8.22035 9.12389 11.849 5.82333 11.9193 5.52392C11.928 5.48647 11.9362 5.34689 11.8533 5.27318C11.7703 5.19948 11.648 5.22468 11.5596 5.24473C11.4345 5.27314 9.44044 6.59111 5.57762 9.19862C5.01162 9.58727 4.49897 9.77664 4.03964 9.76671C3.53327 9.75577 2.55922 9.4804 1.83512 9.24503C0.946973 8.95633 0.241093 8.80369 0.302559 8.31339C0.334575 8.05801 0.686257 7.79683 1.35761 7.52986Z" fill="white"/>
</svg>

<svg width="16" height="16" viewBox="0 0 16 16" fill="none" xmlns="http://www.w3.org/2000/svg"><path fill-rule="evenodd" clip-rule="evenodd" d="M1.358 7.53c4.134-1.801 6.89-2.989 8.27-3.563 3.939-1.638 4.757-1.922 5.29-1.932.118-.002.38.027.55.165a.598.598 0 01.202.384c.019.11.042.362.024.558-.214 2.243-1.137 7.685-1.607 10.197-.199 1.062-.59 1.419-.97 1.454-.823.075-1.448-.545-2.246-1.068-1.248-.818-1.953-1.327-3.165-2.126-1.4-.922-.492-1.43.306-2.258.208-.217 3.837-3.518 3.907-3.817.009-.038.017-.177-.066-.25-.083-.075-.205-.05-.293-.03-.126.03-2.12 1.347-5.982 3.955-.566.388-1.079.578-1.538.568-.507-.011-1.48-.287-2.205-.522C.947 8.956.241 8.804.303 8.313c.032-.255.383-.516 1.055-.783z" fill="#fff"/></svg>
